X:1
T:P.O.B. GALOP.
T:P.O.B. GALOP.
T:By F. A. GUTTENBERGER.
T:Copyright 1881 by F. W. Helmick.
T:Copyright 1881 by F. W. Helmick.
T:Copyright 1881 by F. W. Helmick.
C:By F. A. GUTTENBERGER.
Z:Copyright 1881 by F. W. Helmick.
%%score { 1 | 2 }
L:1/8
Q:1/4=120
M:2/4
K:G
V:1 treble nm="Piano" snm="Pno."
V:2 bass 
V:1
!ff! [Dd]3 [Ee] | [Ff][Gg][Aa][Bb] | .[cc'] z z3/2 [dfac']/ | !fermata![dfac']4 |:!f! B z d z | %5
 B z G z | F>A d2 | f>c' d'2 | c z d z | c z F z | G>B d2 | g>c' d'2 | B z d z | B z G z | F>A d2 | %15
 f>c' d'2 | F z e z | d z F z | GG/B/ d/g/b/d'/ | g'2 z2 ::[K:D] A2 d>d | d>FA>d | [Gc]z[Gc] z | %23
 [cg]2 z2 | G2 [Ge]>[Ge] | e>GA>c | [Ad]z[Ad] z | [Af]2 z2 | [Ad]2 [Af]>[Af] | [Bg]2 [Af]2 | %30
 [Ge]2 [Ge]2 | [GB]2 z2 | ^G2 [Ge]>[Ge] | [^Gf]2 [Ge]2 | [EA]2 [Ec]2 | [EA]2 z2 ::!p! fzd z | %37
 AzF z | Gze z | z2 e>f | gze z | czA z | d>cd>e | !^!f2 !^!A2 | Az[Af] z | [Bg]z[Af] z | %46
 [GB]z[Ge] z | [Gf]z[Ge] z |!ff! [dd'][cc'][Bb][Aa] | [^G^g][Aa][Bb][cc'] | [dd']z[ff'] z | %51
 [dd']2 z2 ::[K:G] dzB z | [Bg]2 z2 | dzc z | [cf]2 z2 | dzc z | [cf]2 b>a | g>fg>a | b>c'e'>d' | %60
 dzB z | [Bg]2 z2 | dzc z | [cf]3 e |!f! d2 d>e | [Ff][Gg][Aa][Bb] | [cc'][dd'][ee'][ff'] | %67
 [gg']2 z2!fine! :|[K:D]!ff! a[Aa]/[Aa]/ [Aa][Aa] | [Aa][Aa][Aa][Aa] | [Aa]2 [cc']2 | [ee']2 z2 | %72
 [cc']2 [ee']2 | [gg']2 z2 |:!p! Azf z | ezd z | c2 B>A | B2 z2 | Azg z | fze z | d>cd>e | f2 A>B | %82
 Az[Af] z | [Ge]z[Fd] z | B>d g2 | [Af]2 [Ge]2 | A>d f2 | A>c e2 | dc/d/ fe |"_D.C." d2 z2!D.C.! |] %90
V:2
 [D,,D,]3 [E,,E,] | [F,,F,][G,,G,][A,,A,][B,,B,] | [C,C] z z3/2 [D,F,A,C]/ | !fermata![D,F,A,C]4 |: %4
 G,,[D,G,B,]B,,[D,G,B,] | G,,[D,G,B,]B,,[D,G,B,] | D,[F,A,C][F,A,C][F,A,C] | %7
 D,[F,A,C][F,A,C][F,A,C] | D,[F,A,C]D,[F,A,C] | D,[F,A,C]D,[F,A,C] | G,,[D,G,B,][D,G,B,][D,G,B,] | %11
 B,,[D,G,B,][D,G,B,][D,G,B,] | G,,[D,G,B,]B,,[D,G,B,] | G,,[D,G,B,]B,,[D,G,B,] | %14
 C,[E,A,C][E,A,C][E,A,C] | C,[F,A,C][F,A,C][F,A,C] | D,[F,A,C]A,,[F,A,C] | F,,[F,A,C]A,,[F,A,C] | %18
 G,,[D,G,B,]B,,[D,G,B,] | [G,,G,]2 z2 ::[K:D] D,[F,A,D]A,,[F,A,D] | D,[F,A,D][F,A,D][F,A,D] | %22
 E,[G,A,C]A,,[G,A,C] | E,[G,A,C][G,A,C][G,A,C] | E,[G,A,C]A,,[G,A,C] | E,[G,A,C][G,A,C][G,A,C] | %26
 D,[F,A,D]A,,[F,A,D] | D,[F,A,D][F,A,D][F,A,D] | D,[F,A,D]A,,[F,A,D] | D,[F,A,D]A,,[F,A,D] | %30
 G,[B,E]E,[B,E] | E,[G,B,E][G,B,E][G,B,E] | E,[^G,B,D]E,[G,B,D] | E,[^G,B,D]E,[G,B,D] | %34
 A,,[E,A,C]E,[A,C] | [A,,A,]2 z2 :: D,[F,A,D]A,,[F,A,D] | D,[F,A,D]A,,[F,A,D] | %38
 E,[G,A,C]E,[G,A,C] | E,[G,A,C][G,A,C][G,A,C] | E,[G,A,C]A,,[G,A,C] | E,[G,A,C]A,,[G,A,C] | %42
 D,[F,A,D]A,,[F,A,D] | D,[F,A,D][F,A,D][F,A,D] | D,[F,A,D]A,,[F,A,D] | D,[F,A,D]A,,[F,A,D] | %46
 G,[B,E]E,[G,B,E] | G,[B,E]E,[G,B,E] | E,[G,A,C]A,,[G,A,C] | E,[G,A,C]A,,[G,A,C] | %50
 D,[F,A,D]D,[F,A,D] | D,2 z2 ::[K:G] G,[B,D]D,[G,B,D] | G,[B,D][B,D][B,D] | A,[CD]D,[A,CD] | %55
 A,[CD][CD][CD] | A,[CD]D,[CD] | A,[CD][CD][CD] | G,[B,DG]B,[B,DG] | G,[B,DG][B,DG][B,DG] | %60
 G,[B,D]D,[G,B,D] | G,[B,D][B,D][B,D] | A,[CD]D,[CD] | A,[CD][CD][CD] | A,[CD]D,[CD] | %65
 A,[CD]D,[CD] | D,[A,CD][A,CD][A,CD] |"^Fine." [G,B,D]2 z2 :|[K:D] [A,,,A,,]2 [A,CEG]2 | %69
 [A,CEG][A,CEG][A,CEG][A,CEG] | [A,CEG]2 [A,CEG]2 | [A,CEG]2 z2 | [A,CEG]2 [A,CEG]2 | %73
 [A,CEG]2 z2 |: D,[F,A,D]A,,[F,A,E] | D,[F,A,D][F,A,D][F,A,D] | E,[G,B,C]E,[G,B,C] | %77
 E,[G,B,C][G,B,C][G,B,C] | E,[G,B,C]A,,[G,B,C] | E,[G,B,C]A,,[G,B,C] | D,[F,A,D]D,[F,A,D] | %81
 D,[F,A,D][F,A,D][F,A,D] | D,[F,A,D]A,,[F,A,D] | D,[F,A,D]A,,[F,A,D] | %84
 [G,,G,][G,B,E][G,B,E][G,B,E] | E,[G,B,E][G,B,E][G,B,E] | D,[F,A,D][F,A,D][F,A,D] | %87
 [A,,A,][G,A,C][G,A,C][G,A,C] | D,[F,A,D]D,[F,A,D] | [D,F,A,D]2 z2 |] %90

